X:1
T:Não sei
T:Minuet
T:J.S.Bach
C:Eu
%%score { 1 | 2 }
L:1/8
Q:1/4=110
M:3/4
K:G
V:1 treble nm="Piano" snm="Pno."
V:2 bass 
V:1
 d2 GA Bc | d2 G2 G2 | e2 cd ef | g2 G2 G2 | c2 dc BA | B2 cB AG | F2 GA BG | BA A4 | d2 GA Bc | %9
 d2 G2 G2 | e2 cd ef | g2 G2 G2 | c2 dc BA | B2 cB AG | A2 BA GF | G6 | b2 ga bg | a2 de fd | %18
 g2 ef gd | ^c2 Bc A2 | AB ^cd ef | g2 f2 e2 | f2 A2 ^c2 | d6 | d2 GF G2 | e2 GF G2 | d2 c2 B2 | %27
 AG FG A2 | DE FG AB | c2 B2 A2 | Bd G2 F2 | [B,DG]6 |] %32
V:2
 G,4 A,2 | B,6 | C6 | B,6 | A,6 | G,6 | D2 B,2 G,2 | D2 D,C B,A, | B,4 A,2 | G,2 B,2 G,2 | C6 | %11
 B,2 CB, A,G, | A,4 F,2 | G,4 B,2 | C2 D2 D,2 | G,4 G,,2 | G,6 | F,6 | E,2 G,2 E,2 | A,4 A,,2 | %20
 A,6 | B,2 D2 ^C2 | D2 F,2 A,2 | D2 D,2 D2 | B,2 D2 B,2 | C2 E2 C2 | B,2 A,2 G,2 | D4 z2 | %28
 D,4 F,2 | E,2 G,2 E,2 | G,2 B,,2 D,2 | G,2 D,2 G,,2 |] %32

